X: 14046
T: KAREN'S HORNPIPE
C: Bob McQuillen Feb.'09
B: Bob's Note Book 14 #46
%R: hornpipe, reel
%D:2009
Z: 2020 John Chambers <jc:trillian.mit.edu>
M: C
L: 1/8
K: G	% and D
Bc \
| d2dB cBA2 | BdBG AGE2 | G2GE DGBd | c2A2 A2Bc |
| BdBG AGED | GABG AGEG | DGBd cAdc | B2G2 G2 :| [K:D]
|: FG \
| AFAd fafd | e2ed Bded | c2cB Aceg | f2fd AGFG |
| AFAd fafd | efge B2ed | cdef gABc | d2f2 d2 :|
%%begintext align
%% When Old New
%% England plays at the Deerfield Dance, we
%% are always made welcome by Karen Horsman
%% and Don Gorman. Thanks a lot, you guys; we sure
%% do appreciate your hospitality. Which is why
%% you got this tune, Karen! All the best to you both.
%%endtext

%%sep 1 1 500

%%sep 1 1 500

